X:1
T:Title
%%score ( 1 2 ) { 3 | 4 }
L:1/8
Q:1/4=97
M:4/4
K:Ab
V:1 treble nm="Grand Piano, Soprano"
V:2 treble 
V:3 treble nm="Choir Pad, Sweet Sometime of Heaven"
V:4 bass 
V:1
 z2 A6 | [EA][EA][DF]C CCCC | AB c2- [Ac-]2 [Ac][Ac] | z2 B6 | z2 A6 | [EA][EA][DF]C CCCC | %6
 Ac e2- [Ae-]2 [Ae]A | [Ac][GB]AE FF E2 | z2 B6 | z2 z c- c3- c/ z/ | z2 c6 | z2 B6 | %12
 Ac e2- [Ae-]2 [Ae][Ac] | [EB][EA][DF]C CCCC | AB c2- [Ac-]2 [Ac]A | [Ac][GB]AE FF E2- | E6 z2 |] %17
V:2
 EF E2 E2 E[EB] | z2 z E- E3- E/ z/ | z2 A2 z4 | [EB][FA]GG GG G2 | EF E2 E2 E[EB] | %5
 z2 z E- E3- E/ z/ | z2 A2 z4 | x8 | AA E2 E2 E[Fd] | [EA][EB][Ec]E EEEE | AB A2 A2 A[Ac] | %11
 [EB][FA]GG GG G2 | z2 A2 z4 | z2 z E- E3- E/ z/ | z2 A2 z4 | x8 | x8 |] %17
V:3
 z2 C2 C2 CC | CC[K:bass]A,A, A,A,A,A, | z2[K:treble] E2 E2 EE | E=DEE EE E2 | z2 C2 C2 CC | %5
 CC[K:bass]A,A, A,A,A,A, | z2[K:treble] C2 C2 CE | EDCC DD C2 | z2[K:bass] G,2 G,2 G,A, | %9
 A,G,A,A, A,A,A,A, | z2[K:treble] E2 E2 EE | E=DEE EE E2 | z2 C2 C2 CE | DC[K:bass]A,A, A,A,A,A, | %14
 z2[K:treble] E2 F2 EE | EDCC DD C2- | C6 z2 |] %17
V:4
 z2 A,,2 A,,2 A,,A,, | A,,A,,A,,A,, C,E,A,,A,, | z2 A,2 A,2 A,A, | G,F,E,E, E,E, E,2 | %4
 z2 A,,2 A,,2 A,,A,, | A,,A,,A,,A,, C,E,A,,A,, | z2 A,2 A,2 A,C, | E,E, A,,6 | z2 E,2 E,2 E,D, | %9
 C,B,,A,,A,, C,E,A,,A,, | z2 A,2 A,2 A,A, | G,F,E,E, E,E, E,2 | z2 A,2 A,2 A,A, | %13
 A,A,A,,A,, C,E,A,,A,, | z2 A,2 F,2 C,C, | E,E, A,,6- | A,,6 z2 |] %17

